Sources/FrostedUI/Resources/Icons.xcassets/trashSolid20.imageset/trash-solid-20.svg

<svg
  width="20"
  height="20"
  viewBox="0 0 20 20"
  fill="none"
  xmlns="http://www.w3.org/2000/svg"
  data-fui-icon="true"
>
  <path
    d="M14.878 17.116L15.5 6.75H4.5L5.12196 17.116C5.19388 18.3147 6.187 19.25 7.38788 19.25H12.6121C13.813 19.25 14.8061 18.3147 14.878 17.116Z"
    fill="currentColor"
    stroke="currentColor"
    stroke-width="1.5"
    stroke-linecap="round"
    stroke-linejoin="round"
  />
  <path
    d="M6.75 4.75L7.11764 2.78928C7.33934 1.60685 8.37178.75 9.57482.75H10.4252C11.6282.75 12.6607 1.60685 12.8824 2.78928L13.25 4.75M2.75 4.75H17.25"
    stroke="currentColor"
    stroke-width="1.5"
    stroke-linecap="round"
    stroke-linejoin="round"
  />
</svg>

<svg xmlns="http://www.w3.org/2000/svg" width="20" height="20" fill="none" data-fui-icon="true" viewBox="0 0 20 20"><path fill="currentColor" stroke="currentColor" stroke-linecap="round" stroke-linejoin="round" stroke-width="1.5" d="M14.878 17.116 15.5 6.75h-11l.622 10.366a2.27 2.27 0 0 0 2.266 2.134h5.224a2.27 2.27 0 0 0 2.266-2.134"/><path stroke="currentColor" stroke-linecap="round" stroke-linejoin="round" stroke-width="1.5" d="m6.75 4.75.368-1.96A2.5 2.5 0 0 1 9.575.75h.85a2.5 2.5 0 0 1 2.457 2.04l.368 1.96m-10.5 0h14.5"/></svg>
